!!!COM: Palestrina, Giovanni Perluigi da
!!!OPR: Missa Petra sancta
!!!OMD: Credo
!!!OTL: Crucifixus
**kern	**kern	**kern	**kern
*Ibass	*Itenor	*Itenor	*Icalto
!Bassus	!Tenor 2	!Tenor 1	!Altus
*clefF4	*clefGv2	*clefGv2	*clefG2
*k[]	*k[]	*k[]	*k[]
*A:aeo	*A:aeo	*A:aeo	*A:aeo
*M4/2	*M4/2	*M4/2	*M4/2
=87	=87	=87	=87
1.d	1.f	0r	1r
.	.	.	[1a
2c#	2e	.	.
=88	=88	=88	=88
1d	1f	0r	2a]
.	.	.	2a
2A	2e	.	1a
[2c	[2f	.	.
=89	=89	=89	=89
2c]	2f]	0r	2g
2B	2d	.	2g
2A	2c	.	2f
2G	2B	.	[2e
=90	=90	=90	=90
1F	1A	1.a	2e]
.	.	.	2d
1E	1B	.	1e
.	.	2g#	.
=91	=91	=91	=91
0D	0d	1a	2f
.	.	.	2.f
.	.	2d	.
.	.	.	4e
.	.	[2f	[2d
=92	=92	=92	=92
0r	1A	2f]	2d]
.	.	2e	2c
.	2r	2d	2f
.	[2a	2c	2e
=93	=93	=93	=93
2r	2a]	1B	1d
1d	2g#	.	.
.	[1a	1A	1e
2c#	.	.	.
=94	=94	=94	=94
1d	2a]	2.f	2.a
.	2d	.	.
.	.	8e	4a
.	.	8d	.
2A	2f	2.c	2a
[2c	2e	.	2g
.	.	4d	.
=95	=95	=95	=95
2c]	2c	2e	2a
2B	2d	2d	2b
2A	1e	2c	2cc
2G	.	[2e	[2b
=96	=96	=96	=96
1F	1A	2e]	4b]
.	.	.	4a
.	.	2d	1a
1E	1B	1e	.
.	.	.	2g#
=97	=97	=97	=97
2r	2r	1A	0a
2A	2c	.	.
2A	2c	2r	.
2A	2c	2e	.
=98	=98	=98	=98
2G	2B	2e	0r
2A	2c	2e	.
2B-	2d	2d	.
4A	2c	2e	.
4G	.	.	.
=99	=99	=99	=99
2F	2A	1f	1a
2D	1d	.	.
1A	.	1e	2a
.	2c	.	2a
=100	=100	=100	=100
0r	2B-	2d	2g
.	2A	2c	2a
.	1G	2d	1b-
.	.	[2g	.
=101	=101	=101	=101
2r	1d	2g]	1a
1d	.	2f	.
.	1r	2d	[1a
2c	.	2e	.
=102	=102	=102	=102
2A	0r	2f	2a]
2B	.	2g	2g
2c	.	2.a	2e
2d	.	.	2f
.	.	8g	.
.	.	8f	.
=103	=103	=103	=103
2c	0r	2e	2g
2A	.	1f	2a
1c	.	.	1g
.	.	2e	.
=104	=104	=104	=104
2.F	2r	2c	1a
.	1f	2d	.
4G	.	.	.
[1A	.	4c	1a
.	.	4B	.
.	2e	4c	.
.	.	4d	.
=105	=105	=105	=105
2A]	2c	2e	1.a
2D	2d	1d	.
1A	2e	.	.
.	2e	2c#	2a
=106	=106	=106	=106
2r	2d	1d	0a
2d	2f	.	.
2d	2f	2r	.
2d	2f	2a	.
=107	=107	=107	=107
2.c	2.e	2a	0r
.	.	2g	.
4B	4d	.	.
2A	2c	2f	.
2G	2B	2e	.
=108	=108	=108	=108
2A	2c	2.f	0r
2.B-	2.d	.	.
.	.	4e	.
.	.	1d	.
4A	4e	.	.
4G	[2f	.	.
4F	.	.	.
=109	=109	=109	=109
1G	2f]	1B-	1b-
.	2e	.	.
1F	1f	2c	2.a
.	.	2A	.
.	.	.	4g
=110	=110	=110	=110
0r	2r	2d	2f
.	2A	2c	2e
.	2d	2d	2f
.	2c	[2e	[2g
=111	=111	=111	=111
0r	2d	4e]	4g]
.	.	4d	4f
.	2B-	1d	4e
.	.	.	4d
.	1A	.	1e
.	.	2c#	.
=112	=112	=112	=112
2r	2r	1d	1d
2D	2d	.	.
2E	2c	1r	1r
2F	2A	.	.
=113	=113	=113	=113
2G	2B	0r	0r
2E	2c	.	.
4D	2.d	.	.
4E	.	.	.
4F	.	.	.
4G	4e	.	.
=114	=114	=114	=114
4A	4f	1r	0r
4B	4d	.	.
4c	4e	.	.
4A	4f	.	.
4B	2g	2r	.
4c	.	.	.
[2d	2f	2a	.
=115	=115	=115	=115
2d]	1e	2g	1r
2c#	.	2e	.
1d	2r	2.f	2r
.	2d	.	2d
.	.	4g	.
=116	=116	=116	=116
0r	2c	1a	2e
.	2A	.	2f
.	2B	2r	2g
.	2c	2g	2e
=117	=117	=117	=117
1r	2.d	2.f	4d
.	.	.	4e
.	.	.	4f
.	4e	4e	4g
2r	4f	2d	4a
.	4d	.	4b
2A	4e	2c	4cc
.	4f	.	4a
=118	=118	=118	=118
2G	1g	2d	2b
2E	.	2e	1cc
2F	2a	1d	.
2G	4g	.	2b
.	4f	.	.
=119	=119	=119	=119
2A	4e	0r	1cc
.	4c	.	.
4F	1f	.	.
4G	.	.	.
4A	.	.	1c
4B	.	.	.
[2c	2e	.	.
=120	=120	=120	=120
2c]	1d	1G	2.g
2B	.	.	.
.	.	.	4g
2c	1r	2.c	2e
2C	.	.	2g
.	.	4c	.
=121	=121	=121	=121
2.F	1c	2A	0a
.	.	2c	.
4F	.	.	.
2D	2.f	2.d	.
2F	.	.	.
.	4f	4c	.
=122	=122	=122	=122
1G	2d	2B	0g
.	2e	2.c	.
1G	2d	.	.
.	.	8B	.
.	.	8A	.
.	2d	2B	.
=123	=123	=123	=123
0C	1g	2.c	2e
.	.	.	2c
.	.	4d	.
.	2r	1e	2.g
.	2G	.	.
.	.	.	4g
=124	=124	=124	=124
1C	2.c	1r	2e
.	.	.	2g
.	4c	.	.
2.F	2A	1c	[1a
.	2c	.	.
4F	.	.	.
=125	=125	=125	=125
2D	2.d	2.f	1a]
2F	.	.	.
.	4c	4f	.
1G	2B	2d	[1g
.	[2c	2e	.
=126	=126	=126	=126
1G	4c]	1d	1g]
.	8B	.	.
.	8A	.	.
.	2B	.	.
2C	1c	2.e	2g
2c	.	.	2c
.	.	4f	.
=127	=127	=127	=127
2B	0r	1g	2d
2c	.	.	2e
2.A	.	1c	4f
.	.	.	4e
.	.	.	[2e
4G	.	.	.
=128	=128	=128	=128
2F	2r	2r	2e]
2F	2a	2A	2d
2E	2g#	2B	2e
2A	2a	2c	2e
=129	=129	=129	=129
1.D	2.f	2.d	1.a
.	4e	4e	.
.	2d	2f	.
2D	2d	2f	2a
=130	=130	=130	=130
2A	0c#	1e	0a
1A	.	.	.
.	.	2r	.
2A	.	[2e	.
=131	=131	=131	=131
1c#	1r	2e]	2r
.	.	2e	1a
1d	2r	1f#	.
.	[2d	.	2a
=132	=132	=132	=132
1G	2d]	1.g	1b
.	2d	.	.
1c	1e	.	2.cc
.	.	[2c	.
.	.	.	4b
=133	=133	=133	=133
1F	2.f	2c]	1a
.	.	1f	.
.	4e	.	.
1r	2d	.	2f
.	2c	[2e	[2g
=134	=134	=134	=134
0r	1B-	4e]	4g]
.	.	4d	4f
.	.	1d	4e
.	.	.	4d
.	2A	.	1e
.	2e	2c#	.
=135	=135	=135	=135
2r	2f	1d	1d
1G	4g	.	.
.	4f	.	.
.	4e	2.g	1b-
.	4d	.	.
2G	[2d	.	.
.	.	4f	.
=136	=136	=136	=136
1A	2d]	1e	2.a
.	2c#	.	.
.	.	.	4g
2.B-	2d	2d	4f
.	.	.	4e
.	[2d	4G	4d
4A	.	4A	4c
=137	=137	=137	=137
2G	2d]	4B-	2B-
.	.	4c	.
2F	2d	1d	2A
1E	1e	.	1G
.	.	2c#	.
=138	=138	=138	=138
2D	2.f	1d	2A
1D	.	.	1a
.	4e	.	.
.	2d	2r	.
2D	2f	[2d	2a
=139	=139	=139	=139
1G	1g	2d]	1b
.	.	2d	.
1C	1g	1e	2.cc
.	.	.	4b
=140	=140	=140	=140
1F	2r	2.f	2a
.	2a	.	2cc
.	.	4e	.
2G	2g	2d	2b
2A	2e	2c	[2a
=141	=141	=141	=141
0E	0e	0B	2a]
.	.	.	4g#
.	.	.	4f#
.	.	.	1g#
=142	=142	=142	=142
0A	0e	0c#	0a
*-	*-	*-	*-
!!!CDT: 1525/^1526/-1594/2/2
!!!OCY: Italia
!!!AGN: Mass (Parody)
!!!AST: renaissance, vocal
!!!ASW: Madrigal 1561 (Palestrina)
!!!PWK: Masses, Book 10
!!!RNB: Cadence finals: D
!!!YOR: Le Opere Complete, v. 27, p. 52
!!!YOO: Rome, Italy: Fratelli Scalera
!!!END: 1992//
!!!EED: John Miller
!!!YEC: Copyright 2000, John Miller
!!!YEN: United States of America
!!!YEM: Rights to all derivative electronic formats reserved.
!!!YEM: Refer to licensing agreement for further details.
!!!YEM: This file must be accompanied by the licensing agreement.
!!!YEM: A copy of the licensing agreement may be found at http://www.music-cog.ohio-state.edu/HumdrumDatabases/Palestrina/license.txt
!!!EMD: converted to Humdrum by Bret Aarden
